icon-themes/breeze_svg/cmd/lc_distributecolumns.svg

<svg viewBox="0 0 24 24" xmlns="http://www.w3.org/2000/svg"><path d="m4 4v16h4v-1h-2-1v-2h4v-1h-4v-2h4v-1h-4v-2h4v-1h-4v-2h4v-1h-4v-2h1 1 1v-1zm6 0v16h1 2 1v-1-6h1 1v2l4-3-4-3v2h-1-1v-6-1h-1-2zm1 1h2v2h-2zm0 3h2v2h-2zm0 3h2v2h-2zm0 3h2v2h-2zm0 3h2v2h-2z" fill="#4d4d4d"/></svg>

<svg xmlns="http://www.w3.org/2000/svg" viewBox="0 0 24 24">
 <path 
     style="fill:#4d4d4d" 
     d="M 4 4 L 4 20 L 8 20 L 8 19 L 6 19 L 5 19 L 5 17 L 9 17 L 9 16 L 5 16 L 5 14 L 9 14 L 9 13 L 5 13 L 5 11 L 9 11 L 9 10 L 5 10 L 5 8 L 9 8 L 9 7 L 5 7 L 5 5 L 6 5 L 7 5 L 8 5 L 8 4 L 4 4 z M 10 4 L 10 20 L 11 20 L 13 20 L 14 20 L 14 19 L 14 13 L 15 13 L 16 13 L 16 15 L 20 12 L 16 9 L 16 11 L 15 11 L 14 11 L 14 5 L 14 4 L 13 4 L 11 4 L 10 4 z M 11 5 L 13 5 L 13 7 L 11 7 L 11 5 z M 11 8 L 13 8 L 13 10 L 11 10 L 11 8 z M 11 11 L 13 11 L 13 13 L 11 13 L 11 11 z M 11 14 L 13 14 L 13 16 L 11 16 L 11 14 z M 11 17 L 13 17 L 13 19 L 11 19 L 11 17 z "
     />
 </svg>
